svg/fluentui-system-icons/ic_fluent_shopping_bag_percent_20_filled.svg

<svg width="20" height="20" viewBox="0 0 20 20" fill="none" xmlns="http://www.w3.org/2000/svg">
<path d="M6 4.5V6H5C4.44772 6 4 6.44772 4 7V15C4 15.417 4.078 15.807 4.23499 16.172C4.39099 16.531 4.60699 16.849 4.883 17.125C5.15399 17.396 5.47101 17.61 5.836 17.766C6.19501 17.922 6.58301 18 7 18H10.0854C9.89933 17.4723 10.0173 16.8614 10.4393 16.4393L11 15.8787V14.8293C9.83481 14.4175 9 13.3062 9 12C9 10.6938 9.83481 9.58254 11 9.17071V4.5C11 4.271 10.971 4.053 10.914 3.844C10.857 3.635 10.776 3.44 10.672 3.258C10.917 3.086 11.193 3 11.5 3C11.708 3 11.903 3.039 12.086 3.117C12.269 3.195 12.428 3.301 12.563 3.437C12.698 3.573 12.805 3.732 12.883 3.914C12.961 4.096 13 4.292 13 4.5V6H12V9C13.617 9 14.9352 10.2793 14.9977 11.881L16 10.8787V7C16 6.44772 15.5523 6 15 6H14V4.5C14 4.156 13.935 3.833 13.805 3.531C13.675 3.224 13.498 2.958 13.274 2.734C13.045 2.505 12.779 2.325 12.477 2.195C12.169 2.065 11.844 2 11.5 2C11.219 2 10.953 2.044 10.703 2.133C10.448 2.222 10.216 2.347 10.008 2.508C9.795 2.347 9.561 2.222 9.305 2.133C9.049 2.044 8.781 2 8.5 2C8.156 2 7.833 2.065 7.531 2.195C7.224 2.325 6.958 2.505 6.734 2.734C6.505 2.958 6.325 3.224 6.195 3.531C6.065 3.833 6 4.156 6 4.5ZM10 4.5V6H7V4.5C7 4.292 7.039 4.097 7.117 3.914C7.195 3.731 7.301 3.572 7.437 3.437C7.573 3.302 7.732 3.195 7.914 3.117C8.096 3.039 8.292 3 8.5 3C8.708 3 8.903 3.039 9.086 3.117C9.269 3.195 9.428 3.301 9.563 3.437C9.698 3.573 9.805 3.732 9.883 3.914C9.961 4.096 10 4.292 10 4.5ZM12 14C13.1046 14 14 13.1046 14 12C14 10.8954 13.1046 10 12 10C10.8954 10 10 10.8954 10 12C10 13.1046 10.8954 14 12 14ZM12 11C12.5523 11 13 11.4477 13 12C13 12.5523 12.5523 13 12 13C11.4477 13 11 12.5523 11 12C11 11.4477 11.4477 11 12 11ZM17 19C18.1046 19 19 18.1046 19 17C19 15.8954 18.1046 15 17 15C15.8954 15 15 15.8954 15 17C15 18.1046 15.8954 19 17 19ZM17 16C17.5523 16 18 16.4477 18 17C18 17.5523 17.5523 18 17 18C16.4477 18 16 17.5523 16 17C16 16.4477 16.4477 16 17 16ZM17.8536 11.8536C18.0488 11.6583 18.0488 11.3417 17.8536 11.1464C17.6583 10.9512 17.3417 10.9512 17.1464 11.1464L11.1464 17.1464C10.9512 17.3417 10.9512 17.6583 11.1464 17.8536C11.3417 18.0488 11.6583 18.0488 11.8536 17.8536L17.8536 11.8536Z" fill="#212121"/>
</svg>

<svg xmlns="http://www.w3.org/2000/svg" width="20" height="20"><path d="M6 4.5V6H5a1 1 0 0 0-1 1v8c0 .417.078.807.235 1.172.156.359.372.677.648.953A3 3 0 0 0 7 18h3.085a1.5 1.5 0 0 1 .354-1.56l.561-.561v-1.05a3.001 3.001 0 0 1 0-5.658V4.5a2.479 2.479 0 0 0-.328-1.242c.245-.172.521-.258.828-.258a1.482 1.482 0 0 1 1.383.914c.078.182.117.378.117.586V6h-1v3a3 3 0 0 1 2.998 2.881L16 10.879V7a1 1 0 0 0-1-1h-1V4.5c0-.344-.065-.667-.195-.969A2.483 2.483 0 0 0 11.5 2a2.442 2.442 0 0 0-1.492.508 2.542 2.542 0 0 0-.703-.375A2.432 2.432 0 0 0 8.5 2c-.344 0-.667.065-.969.195-.307.13-.573.31-.797.539-.229.224-.409.49-.539.797-.13.302-.195.625-.195.969Zm4 0V6H7V4.5a1.482 1.482 0 0 1 .914-1.383C8.096 3.039 8.292 3 8.5 3a1.482 1.482 0 0 1 1.383.914c.078.182.117.378.117.586Zm2 9.5a2 2 0 1 0 0-4 2 2 0 0 0 0 4Zm0-3a1 1 0 1 1 0 2 1 1 0 0 1 0-2Zm5 8a2 2 0 1 0 0-4 2 2 0 0 0 0 4Zm0-3a1 1 0 1 1 0 2 1 1 0 0 1 0-2Zm.854-4.146a.5.5 0 0 0-.708-.708l-6 6a.5.5 0 0 0 .708.708l6-6Z"/></svg>
